X:40
T:Three Blind Mice
O:Old Round.
%R: air, jig, march
B:"The Everyday Song Book", 1927
F:http://www.library.pitt.edu/happybirthday/pdf/The_Everyday_Song_Book.pdf
Z:2017 John Chambers <jc:trillian.mit.edu>
M:6/8
L:1/8
K:Cmaj
% - - - - - - - - - - - - - - - - - - - - - - - - - - - - -
"^1"E3 D3 | C3 z2z | E3 D3 | C3 z2z |
w:Three blind mice, three blind mice;
%
"^2"G3 F2 F | E3 z2z |G3 F2 F | E3 z2G |
w:See how they run; see how they run; They
%
"^3"c2 c B A B | c2 G G2 G |c c c B A B | c2 G G G G |
w:all ran aft-er the farm-er's wife, She  cut off their tails with a carv-ing knife; Did you
%
"^4"c2 c B A B | c G G G2 F | E3 D3 | C3 z2z |]
w:ev-er see such a sight in your life As three blind mice?
% - - - - - - - - - - - - - - - - - - - - - - - - - - - - -

%%newpage
